packages/vibrant-icons/assets/icons/VolumeMute/Thin.svg

<svg width="24" height="24" viewBox="0 0 24 24" fill="none" xmlns="http://www.w3.org/2000/svg">
<path fill-rule="evenodd" clip-rule="evenodd" d="M7.10103 5.89895L2.77775 1.57566C2.68012 1.47803 2.52182 1.47803 2.42419 1.57566L1.57566 2.42419C1.47803 2.52182 1.47803 2.68012 1.57566 2.77775L21.2221 22.4242C21.3197 22.5218 21.478 22.5218 21.5757 22.4242L22.4242 21.5757C22.5218 21.478 22.5218 21.3197 22.4242 21.2221L18.85 17.6479V1.89129C18.85 1.69276 18.6297 1.57344 18.4634 1.68189L11.9975 5.89895H7.10103ZM8.80103 7.59895L17.15 15.9479V4.56812L12.5029 7.59895H8.80103Z" fill="#0C0C0C"/>
<path d="M16.1288 19.7541C16.2611 19.8781 16.1734 20.1 15.9921 20.1H14.5864C14.5304 20.1 14.476 20.0812 14.432 20.0467L11.9519 18.0989H4.39999C4.26192 18.0989 4.14999 17.987 4.14999 17.8489V7.75206L5.84999 9.45206V16.3989H12.5485L16.1288 19.7541Z" fill="#0C0C0C"/>
</svg>

<svg xmlns="http://www.w3.org/2000/svg" width="24" height="24" fill="none"><path fill="#0C0C0C" fill-rule="evenodd" d="M7.101 5.899 2.778 1.576a.25.25 0 0 0-.354 0l-.848.848a.25.25 0 0 0 0 .354l19.646 19.646a.25.25 0 0 0 .354 0l.848-.848a.25.25 0 0 0 0-.354l-3.574-3.574V1.89a.25.25 0 0 0-.387-.21L11.997 5.9zm1.7 1.7 8.349 8.349V4.568L12.503 7.6z" clip-rule="evenodd"/><path fill="#0C0C0C" d="M16.129 19.754a.2.2 0 0 1-.137.346h-1.406a.25.25 0 0 1-.154-.053l-2.48-1.948H4.4a.25.25 0 0 1-.25-.25V7.752l1.7 1.7V16.4h6.699z"/></svg>
